image/client3.svg

<svg width="41" height="42" fill="none" xmlns="http://www.w3.org/2000/svg"><path d="M6.34541 40.4926a.12165.12165 0 01.04349.0092.11435.11435 0 01.03625.0241l.20577.2089c-.15972.1691-.35714.3044-.57873.3965-.2595.1006-.53917.1492-.82051.1425-.26438.005-.52704-.0402-.77165-.133-.22064-.0851-.41888-.2131-.5813-.3751-.16576-.1681-.29344-.3651-.37553-.5794-.0899-.2389-.13428-.4903-.13118-.7432-.00365-.2545.04433-.5073.14147-.7455.08985-.2157.22539-.4127.39868-.5794.17564-.1635.38574-.292.61731-.3775.25334-.0907.52311-.1358.79479-.133.25237-.0057.5034.0355.73821.1211.20371.0816.39076.1948.55301.3348l-.17234.2232a.16968.16968 0 01-.04372.0403c-.02034.0129-.04491.0188-.06945.0167a.15958.15958 0 01-.07459-.0238l-.0926-.0593-.12861-.076a1.4175 1.4175 0 00-.17233-.0736 1.71286 1.71286 0 00-.23406-.0594 1.68584 1.68584 0 00-.30609-.0237c-.19564-.0023-.38979.0316-.57101.0997-.16901.0631-.32157.1586-.44756.2802-.12825.1293-.22709.2811-.29065.4464-.07244.189-.10814.3883-.10546.5888-.00308.2036.03261.4062.10546.5984.06277.1638.15977.3147.28551.444.11781.1206.26383.2148.42698.2754.16789.0643.34811.0966.52986.095a2.10959 2.10959 0 00.3138-.019c.16961-.0191.33231-.0735.47584-.1591.072-.0438.13996-.093.2032-.1472.02644-.0233.06122-.0368.09774-.038zM12.2871 39.4428c.0032.2519-.0439.5022-.1389.7384-.0838.2142-.2159.4096-.3874.5733-.1716.1637-.3788.292-.608.3764-.5036.1773-1.0603.1773-1.56384 0-.22771-.0857-.43357-.2143-.60444-.3775-.17147-.1667-.30448-.3638-.39096-.5793-.18529-.4783-.18529-1.001 0-1.4792.08774-.2157.22058-.4134.39096-.5818.17233-.1581.37808-.2817.60444-.3632.50294-.1805 1.06094-.1805 1.56384 0 .2285.0856.4352.2142.607.3775.1694.165.3014.3596.3884.5722.0953.2378.1424.4897.1389.7432zm-.5401 0c.004-.2016-.029-.4023-.0978-.5936-.0576-.1639-.1513-.3151-.2752-.444-.1206-.122-.2691-.2177-.4347-.2802-.3659-.1298-.7709-.1298-1.13685 0-.16561.0625-.31409.1582-.43469.2802-.12561.1282-.22029.2795-.27779.444-.13087.3865-.13087.8007 0 1.1872.05806.1642.15268.3154.27779.444.12075.1212.26924.2161.43469.2778.36655.1265.77035.1265 1.13685 0 .1655-.0617.314-.1566.4347-.2778.1234-.1293.217-.2804.2752-.444.0691-.1913.1021-.3921.0978-.5936zM16.3408 40.0651l.054.133c.0206-.0475.0386-.0902.0591-.133.0197-.0446.042-.0882.0669-.1306l1.3144-2.2056c.0257-.038.0488-.0617.0746-.0688a.33008.33008 0 01.108-.0119h.3884v3.5874h-.4604v-2.6377-.1116a1.01775 1.01775 0 010-.1235l-1.3221 2.2365c-.0168.0335-.0437.0618-.0774.0816-.0338.0198-.073.0302-.1129.03h-.0746c-.0401.0005-.0794-.0098-.1132-.0296s-.0606-.0483-.0772-.082l-1.3606-2.2507v2.8799h-.445v-3.5803h.3884c.0365-.002.0731.002.108.0119.0319.0146.0573.0389.072.0688l1.3427 2.208a.77018.77018 0 01.0669.1282zM21.2871 39.887v1.3437h-.5144v-3.5824h1.1472c.2165-.0038.4325.0226.6404.0784.1665.0435.3209.1196.4527.2231.1143.097.2024.2173.2573.3514.0607.1461.0904.3017.0874.4582.0023.1571-.0301.3129-.0952.4581-.0618.1375-.1568.2601-.2778.3585-.1319.1078-.2871.1887-.4552.2374-.2003.0591-.4097.0872-.6199.0831l-.6225-.0095zm0-.3846h.6225c.1352.0016.2698-.0168.3987-.0546.1063-.033.2043-.0855.2881-.1543.0772-.0657.1371-.1469.1749-.2374.0421-.0957.0631-.1982.0617-.3015.006-.0996-.0116-.1992-.0516-.2918-.04-.0927-.1014-.1762-.1799-.2447-.1965-.1416-.4433-.2102-.6919-.1923h-.6225v1.4766zM28.201 41.2355h-.4064c-.0408.0014-.0808-.0103-.1132-.0333-.0292-.0223-.0521-.0508-.0669-.0831l-.3498-.8666H25.508l-.3627.8666c-.0133.0317-.0355.0596-.0643.0808-.0327.0243-.0738.0369-.1158.0356h-.4064l1.5433-3.5876h.535l1.5639 3.5876zm-2.5464-1.332h1.4507l-.6122-1.4602a2.4658 2.4658 0 01-.1158-.3371l-.0591.1875c-.018.057-.0386.1093-.0566.152l-.607 1.4578zM30.4233 37.6646c.0308.0156.0572.0376.0772.0642l2.2506 2.7042v-.1258V37.648h.4604v3.5875h-.2572c-.0365.001-.0727-.0063-.1054-.0214-.0318-.0171-.0597-.0396-.0823-.0664l-2.2481-2.7019a1.0161 1.0161 0 010 .1234v2.6663h-.4604V37.648h.2727a.23274.23274 0 01.0925.0166zM37.0028 39.8085v1.4247h-.5145v-1.4247l-1.4224-2.1607h.4604c.0397-.0021.0789.0088.1106.0309.028.023.0515.0503.0695.0807l.89 1.3938c.036.0594.0668.114.0926.1662.0257.0522.0463.1021.0643.152l.0668-.1544c.025-.0564.0542-.1111.0875-.1638l.8771-1.4033a.36458.36458 0 01.0669-.0759c.0305-.0246.0701-.0374.1106-.0357h.4655l-1.4249 2.1702zM16.0862 31.6274c.2238.0261.4501.0475.679.0664 3.4706-1.4331 6.4066-3.7786 8.441-6.7435 2.0344-2.9648 3.077-6.4174 2.9974-9.9261l-3.8248-3.5305c.7777 3.7357.4139 7.5974-1.0506 11.1532-1.4646 3.5558-3.9721 6.6652-7.242 8.9805z" fill="#AFB1B8"/><path d="M14.7205 31.4632l.1028.019c3.4943-2.3071 6.1583-5.5287 7.6477-9.2483 1.4894-3.7196 1.7355-7.7661.7067-11.6162l-5.4478-5.02859c2.2034 4.13338 3.0904 8.75919 2.5577 13.33959-.5328 4.5804-2.4633 8.927-5.5671 12.5345zM33.1962 19.1697c-.9256 3.8553-3.1734 7.3323-6.4098 9.9147-.9452.7584-1.9647 1.434-3.0454 2.0181 2.6353-.715 5.0576-1.979 7.08-3.6948 2.0224-1.7157 3.5909-3.8372 4.5846-6.2009l-2.2094-2.0371z" fill="#AFB1B8"/><path d="M32.3292 18.6021l-3.1457-2.9036c-.0602 3.3105-1.0798 6.5457-2.9529 9.3694-1.8731 2.8236-4.5313 5.1327-7.6984 6.6872h.0155a19.33886 19.33886 0 002.1117-.1163c2.9598-1.1151 5.5745-2.8892 7.6108-5.164 2.0362-2.2747 3.4307-4.9794 4.059-7.8727zM15.1757 3.46876L11.4229 0C8.06808 1.19665 5.18278 3.30031 3.14464 6.03565 1.1065 8.771.01047 12.0106 0 15.3304c.01257 3.6684 1.3502 7.2281 3.80116 10.1157 2.45097 2.8876 5.87526 4.9383 9.73094 5.8273 3.4419-3.8707 5.4571-8.6537 5.7526-13.654.2956-5.0002-1.1438-9.95717-4.109-14.15064zM41 18.0677c-.0136-4.3523-1.8927-8.52274-5.2268-11.60029-3.3341-3.07755-7.8522-4.81205-12.5673-4.82458-2.1788-.00208-4.3391.36904-6.3712 1.09452l22.977 21.20895c.7867-1.8748 1.1897-3.8681 1.1883-5.8786z" fill="#AFB1B8"/></svg>

<svg width="41" height="42" viewBox="0 0 41 42" fill="none" xmlns="http://www.w3.org/2000/svg">
<path d="M6.34541 40.4926C6.36043 40.493 6.37521 40.4961 6.3889 40.5018C6.40259 40.5076 6.41491 40.5157 6.42515 40.5259L6.63092 40.7348C6.4712 40.9039 6.27378 41.0392 6.05219 41.1313C5.79269 41.2319 5.51302 41.2805 5.23168 41.2738C4.9673 41.2788 4.70464 41.2336 4.46003 41.1408C4.23939 41.0557 4.04115 40.9277 3.87873 40.7657C3.71297 40.5976 3.58529 40.4006 3.5032 40.1863C3.4133 39.9474 3.36892 39.696 3.37202 39.4431C3.36837 39.1886 3.41635 38.9358 3.51349 38.6976C3.60334 38.4819 3.73888 38.2849 3.91217 38.1182C4.08781 37.9547 4.29791 37.8262 4.52948 37.7407C4.78282 37.65 5.05259 37.6049 5.32427 37.6077C5.57664 37.602 5.82767 37.6432 6.06248 37.7288C6.26619 37.8104 6.45324 37.9236 6.61549 38.0636L6.44315 38.2868C6.43125 38.3025 6.41645 38.3162 6.39943 38.3271C6.37909 38.34 6.35452 38.3459 6.32998 38.3438C6.30328 38.3421 6.27755 38.3339 6.25539 38.32L6.16279 38.2607L6.03418 38.1847C5.97867 38.1565 5.92108 38.1319 5.86185 38.1111C5.78556 38.0859 5.70732 38.066 5.62779 38.0517C5.52685 38.0345 5.42433 38.0266 5.3217 38.028C5.12606 38.0257 4.93191 38.0596 4.75069 38.1277C4.58168 38.1908 4.42912 38.2863 4.30313 38.4079C4.17488 38.5372 4.07604 38.689 4.01248 38.8543C3.94004 39.0433 3.90434 39.2426 3.90702 39.4431C3.90394 39.6467 3.93963 39.8493 4.01248 40.0415C4.07525 40.2053 4.17225 40.3562 4.29799 40.4855C4.4158 40.6061 4.56182 40.7003 4.72497 40.7609C4.89286 40.8252 5.07308 40.8575 5.25483 40.8559C5.35981 40.8574 5.46475 40.851 5.56863 40.8369C5.73824 40.8178 5.90094 40.7634 6.04447 40.6778C6.11647 40.634 6.18443 40.5848 6.24767 40.5306C6.27411 40.5073 6.30889 40.4938 6.34541 40.4926Z" fill="#AFB1B8"/>
<path d="M12.2871 39.4428C12.2903 39.6947 12.2432 39.945 12.1482 40.1812C12.0644 40.3954 11.9323 40.5908 11.7608 40.7545C11.5892 40.9182 11.382 41.0465 11.1528 41.1309C10.6492 41.3082 10.0925 41.3082 9.58896 41.1309C9.36125 41.0452 9.15539 40.9166 8.98452 40.7534C8.81305 40.5867 8.68004 40.3896 8.59356 40.1741C8.40827 39.6958 8.40827 39.1731 8.59356 38.6949C8.6813 38.4792 8.81414 38.2815 8.98452 38.1131C9.15685 37.955 9.3626 37.8314 9.58896 37.7499C10.0919 37.5694 10.6499 37.5694 11.1528 37.7499C11.3813 37.8355 11.588 37.9641 11.7598 38.1274C11.9292 38.2924 12.0612 38.487 12.1482 38.6996C12.2435 38.9374 12.2906 39.1893 12.2871 39.4428ZM11.747 39.4428C11.751 39.2412 11.718 39.0405 11.6492 38.8492C11.5916 38.6853 11.4979 38.5341 11.374 38.4052C11.2534 38.2832 11.1049 38.1875 10.9393 38.125C10.5734 37.9952 10.1684 37.9952 9.80245 38.125C9.63684 38.1875 9.48836 38.2832 9.36776 38.4052C9.24215 38.5334 9.14747 38.6847 9.08997 38.8492C8.9591 39.2357 8.9591 39.6499 9.08997 40.0364C9.14803 40.2006 9.24265 40.3518 9.36776 40.4804C9.48851 40.6016 9.637 40.6965 9.80245 40.7582C10.169 40.8847 10.5728 40.8847 10.9393 40.7582C11.1048 40.6965 11.2533 40.6016 11.374 40.4804C11.4974 40.3511 11.591 40.2 11.6492 40.0364C11.7183 39.8451 11.7513 39.6443 11.747 39.4428Z" fill="#AFB1B8"/>
<path d="M16.3408 40.0651L16.3948 40.1981C16.4154 40.1506 16.4334 40.1079 16.4539 40.0651C16.4736 40.0205 16.4959 39.9769 16.5208 39.9345L17.8352 37.7289C17.8609 37.6909 17.884 37.6672 17.9098 37.6601C17.9447 37.6502 17.9813 37.6462 18.0178 37.6482H18.4062V41.2356H17.9458V38.5979C17.9458 38.5646 17.9458 38.5266 17.9458 38.4863C17.9433 38.4452 17.9433 38.4039 17.9458 38.3628L16.6237 40.5993C16.6069 40.6328 16.58 40.6611 16.5463 40.6809C16.5125 40.7007 16.4733 40.7111 16.4334 40.7109H16.3588C16.3187 40.7114 16.2794 40.7011 16.2456 40.6813C16.2118 40.6615 16.185 40.633 16.1684 40.5993L14.8078 38.3486C14.8078 38.3913 14.8078 38.4341 14.8078 38.4768C14.8078 38.5195 14.8078 38.5575 14.8078 38.5907V41.2285H14.3628V37.6482H14.7512C14.7877 37.6462 14.8243 37.6502 14.8592 37.6601C14.8911 37.6747 14.9165 37.699 14.9312 37.7289L16.2739 39.9369C16.3003 39.9777 16.3227 40.0206 16.3408 40.0651Z" fill="#AFB1B8"/>
<path d="M21.2871 39.887V41.2307H20.7727V37.6483H21.9199C22.1364 37.6445 22.3524 37.6709 22.5603 37.7267C22.7268 37.7702 22.8812 37.8463 23.013 37.9498C23.1273 38.0468 23.2154 38.1671 23.2703 38.3012C23.331 38.4473 23.3607 38.6029 23.3577 38.7594C23.36 38.9165 23.3276 39.0723 23.2625 39.2175C23.2007 39.355 23.1057 39.4776 22.9847 39.576C22.8528 39.6838 22.6976 39.7647 22.5295 39.8134C22.3292 39.8725 22.1198 39.9006 21.9096 39.8965L21.2871 39.887ZM21.2871 39.5024H21.9096C22.0448 39.504 22.1794 39.4856 22.3083 39.4478C22.4146 39.4148 22.5126 39.3623 22.5964 39.2935C22.6736 39.2278 22.7335 39.1466 22.7713 39.0561C22.8134 38.9604 22.8344 38.8579 22.833 38.7546C22.839 38.655 22.8214 38.5554 22.7814 38.4628C22.7414 38.3701 22.68 38.2866 22.6015 38.2181C22.405 38.0765 22.1582 38.0079 21.9096 38.0258H21.2871V39.5024Z" fill="#AFB1B8"/>
<path d="M28.201 41.2355H27.7946C27.7538 41.2369 27.7138 41.2252 27.6814 41.2022C27.6522 41.1799 27.6293 41.1514 27.6145 41.1191L27.2647 40.2525H25.508L25.1453 41.1191C25.132 41.1508 25.1098 41.1787 25.081 41.1999C25.0483 41.2242 25.0072 41.2368 24.9652 41.2355H24.5588L26.1021 37.6479H26.6371L28.201 41.2355ZM25.6546 39.9035H27.1053L26.4931 38.4433C26.4463 38.3335 26.4076 38.2209 26.3773 38.1062L26.3182 38.2937C26.3002 38.3507 26.2796 38.403 26.2616 38.4457L25.6546 39.9035Z" fill="#AFB1B8"/>
<path d="M30.4233 37.6646C30.4541 37.6802 30.4805 37.7022 30.5005 37.7288L32.7511 40.433C32.7511 40.3903 32.7511 40.3475 32.7511 40.3072C32.7511 40.2668 32.7511 40.2265 32.7511 40.1885V37.648H33.2115V41.2355H32.9543C32.9178 41.2365 32.8816 41.2292 32.8489 41.2141C32.8171 41.197 32.7892 41.1745 32.7666 41.1477L30.5185 38.4458C30.521 38.4869 30.521 38.5281 30.5185 38.5692C30.5185 38.6096 30.5185 38.6452 30.5185 38.6784V41.2355H30.0581V37.648H30.3308C30.3626 37.6472 30.3942 37.6529 30.4233 37.6646Z" fill="#AFB1B8"/>
<path d="M37.0028 39.8085V41.2332H36.4883V39.8085L35.0659 37.6478H35.5263C35.566 37.6457 35.6052 37.6566 35.6369 37.6787C35.6649 37.7017 35.6884 37.729 35.7064 37.7594L36.5964 39.1532C36.6324 39.2126 36.6632 39.2672 36.689 39.3194C36.7147 39.3716 36.7353 39.4215 36.7533 39.4714L36.8201 39.317C36.8451 39.2606 36.8743 39.2059 36.9076 39.1532L37.7847 37.7499C37.8031 37.7219 37.8256 37.6964 37.8516 37.674C37.8821 37.6494 37.9217 37.6366 37.9622 37.6383H38.4277L37.0028 39.8085Z" fill="#AFB1B8"/>
<path d="M16.0862 31.6274C16.31 31.6535 16.5363 31.6749 16.7652 31.6938C20.2358 30.2607 23.1718 27.9152 25.2062 24.9503C27.2406 21.9855 28.2832 18.5329 28.2036 15.0242L24.3788 11.4937C25.1565 15.2294 24.7927 19.0911 23.3282 22.6469C21.8636 26.2027 19.3561 29.3121 16.0862 31.6274Z" fill="#AFB1B8"/>
<path d="M14.7205 31.4632L14.8233 31.4822C18.3176 29.1751 20.9816 25.9535 22.471 22.2339C23.9604 18.5143 24.2065 14.4678 23.1777 10.6177L17.7299 5.58911C19.9333 9.72249 20.8203 14.3483 20.2876 18.9287C19.7548 23.5091 17.8243 27.8557 14.7205 31.4632Z" fill="#AFB1B8"/>
<path d="M33.1962 19.1697C32.2706 23.025 30.0228 26.502 26.7864 29.0844C25.8412 29.8428 24.8217 30.5184 23.741 31.1025C26.3763 30.3875 28.7986 29.1235 30.821 27.4077C32.8434 25.692 34.4119 23.5705 35.4056 21.2068L33.1962 19.1697Z" fill="#AFB1B8"/>
<path d="M32.3292 18.6021L29.1835 15.6985C29.1233 19.009 28.1037 22.2442 26.2306 25.0679C24.3575 27.8915 21.6993 30.2006 18.5322 31.7551H18.5477C19.2534 31.7549 19.9586 31.716 20.6594 31.6388C23.6192 30.5237 26.2339 28.7496 28.2702 26.4748C30.3064 24.2001 31.7009 21.4954 32.3292 18.6021Z" fill="#AFB1B8"/>
<path d="M15.1757 3.46876L11.4229 0C8.06808 1.19665 5.18278 3.30031 3.14464 6.03565C1.1065 8.771 0.0104686 12.0106 0 15.3304H0C0.0125737 18.9988 1.3502 22.5585 3.80116 25.4461C6.25213 28.3337 9.67642 30.3844 13.5321 31.2734C16.974 27.4027 18.9892 22.6197 19.2847 17.6194C19.5803 12.6192 18.1409 7.66223 15.1757 3.46876Z" fill="#AFB1B8"/>
<path d="M41 18.0677C40.9864 13.7154 39.1073 9.54496 35.7732 6.46741C32.4391 3.38986 27.921 1.65536 23.2059 1.64283C21.0271 1.64075 18.8668 2.01187 16.8347 2.73735L39.8117 23.9463C40.5984 22.0715 41.0014 20.0782 41 18.0677Z" fill="#AFB1B8"/>
</svg>
